!!!COM: Haydn, Franz Joseph
!!!OTL: String Quartet in F Major
!!!OPS: Opus 74
!!!ONM: No. 2
!!!OMD: Allegro spirito
!!!OMV: 1
!!!SCT: H III:73
!!!SCA: Thematisch-bibliographisches Werkevererzeichnis (A. van Hoboken)
!!!YOR: Trautwein Edition
!!!ENC: Frances Bennion
!!!CDT: 1732/3/31/-1809/5/31/
!!!CNT: Oesterreich
!!!YEC: Copyright (c) 1994, 2000 Center for Computer Assisted Research in the Humanities
!!!YEM: Rights to all derivative editions reserved.
!!!YEM: Refer to licensing agreement for further details.
!!!YEN: United States of America
**kern	**kern	**kern	**kern
*k[b-]	*k[b-]	*k[b-]	*k[b-]
*F:	*F:	*F:	*F:
*clefF4	*clefC3	*clefF	*clefF
*M4/4	*M4/4	*M4/4	*M4/4
2F	2F	2f	2f
2A	2A	2a	2a
=2	=2	=2	=2
4c	4c	4cc	4cc
4A	4A	4a	4a
4F	4F	4f	4f
4A	4A	4a	4a
=3	=3	=3	=3
8c	8c	8cc	8cc
8A	8A	8a	8a
8c	8c	8cc	8cc
8A	8A	8a	8a
4F	4F	4f	4f
4c	4c	4cc	4cc
=4	=4	=4	=4
4f	4f	4ff	4ff
4c	4c	4cc	4cc
4A	4A	4a	4a
4F	4F	4f	4f
=5	=5	=5	=5
8C	8c	8c	8c
8BB	8B	8B	8B
8C	8c	8c	8c
8BB	8B	8B	8B
8C	8c	8c	8c
8E	8e	8e	8e
8G	8g	8g	8g
8E	8e	8e	8e
=6	=6	=6	=6
8C	8c	8c	8c
8BB	8B	8B	8B
8C	8c	8c	8c
8BB	8B	8B	8B
8C	8c	8c	8c
8E	8e	8e	8e
8G	8g	8g	8g
8E	8e	8e	8e
=7	=7	=7	=7
4C	4c	4c	4c
4r	4r	4r	4r
4CC	4E	4c	4c
8.r	8.r	8.r	8.r
16CC	16E	16c	16c
=8	=8	=8	=8
1CC	1E	1c	1c
=9	=9	=9	=9
4F	8F	8A	2f
.	8A	8c	.
2.r	8F	8A	.
.	8A	8c	.
.	8F	8A	2a
.	8A	8c	.
.	8F	8A	.
.	8A	8c	.
=10	=10	=10	=10
4F	8F	8A	4cc
.	8A	8c	.
2.r	8F	8A	4cc
.	8A	8c	.
.	8F	8A	4cc
.	8A	8c	.
.	8F	8A	4ff
.	8A	8c	.
=11	=11	=11	=11
4F	8G	8B-	8ee
.	8B-	8c	8ff
2.r	8G	8B-	8gg
.	8B-	8c	8ee
.	8G	8B-	4cc
.	8B-	8c	.
.	8G	8B-	4ee
.	8B-	8c	.
=12	=12	=12	=12
4F	8F	8A	4ff
.	8A	8c	.
2.r	8F	8A	4ff
.	8A	8c	.
.	8F	8A	8ff
.	8A	8c	8gg
.	8F	8A	8aa
.	8A	8c	8bb-
=13	=13	=13	=13
2E	8G	8B-	2ccc
.	8B-	8c	.
.	8G	8e	.
.	8B-	8g	.
2F	8A	8f	4aa
.	8f	8c	.
.	8c	8a	4ff
.	8A	8f	.
=14	=14	=14	=14
2E	8G	8B-	2ccc
.	8B-	8c	.
.	8G	8e	.
.	8B-	8g	.
2F	8A	8f	4aa
.	8f	8c	.
.	8c	8a	4ff
.	8A	8f	.
=15	=15	=15	=15
2BB-	4f	2.d	2ddd
.	4f#	.	.
2B-	4g	.	8ccc
.	.	.	8bb-
.	4b-	4dd	8aa
.	.	.	8gg
=16	=16	=16	=16
1c	2a	2.cc	2ff
.	4g	.	4ee
.	4f	4b	4dd
=17	=17	=17	=17
4c	4e	4cc	4cc
4c	4e	4g	4cc
4c	4e	4g	4cc
4c	4f	4g	8dd
.	.	.	8b
=18	=18	=18	=18
4c	4e	4g	4cc
4c	4e	4g	4cc
4c	4e	4g	4cc
4c	4f	4g	8dd
.	.	.	8b
=19	=19	=19	=19
4c	4e	4e	4cc
4r	4r	4r	4r
4c	4e	4g	4cc
4r	4r	4r	4r
=20	=20	=20	=20
4c	4e	4e	4cc
2.r	2.r	2.r	2.r
=21	=21	=21	=21
4GG 4G	8G	8B-	2g
.	8B-	8d	.
2.r	8G	8B-	.
.	8B-	8d	.
.	8G	8B-	2b-
.	8B-	8d	.
.	8G	8B-	.
.	8B-	8d	.
=22	=22	=22	=22
4G 4GG	8G	8B-	4dd
.	8B-	8d	.
2.r	8G	8B-	4dd
.	8B-	8d	.
.	8G	8B-	4dd
.	8B-	8d	.
.	8G	8B-	4gg
.	8B-	8d	.
=23	=23	=23	=23
4G 4GG	8A	8c	8ff#
.	8c	8d	8gg
2.r	8A	8c	8aa
.	8c	8d	8ff#
.	8A	8c	4dd
.	8c	8d	.
.	8A	8c	4ff#
.	8c	8d	.
=24	=24	=24	=24
4GG 4G	8G	8B-	4gg
.	8B-	8d	.
2.r	8G	8B-	4gg
.	8B-	8d	.
.	8G	8B-	8gg
.	8B-	8d	8aa
.	8G	8B-	8bb-
.	8B-	8d	8ccc
=25	=25	=25	=25
2F#	8A	8c	2ddd
.	8c	8d	.
.	8A	8f#	.
.	8c	8a	.
2G	8B-	8g	4bb-
.	8d	8d	.
.	8g	8b-	4gg
.	8b-	8dd	.
=26	=26	=26	=26
2C	2b-	2gg	2eee
4D	4a	[2ff	4fff
4d	4g#	.	4bb
=27	=27	=27	=27
2c	4a	4ff]	4ccc
.	4f	4a	4aa
2C	4e	4g	4bb-
.	4g	4b-	4ee
=28	=28	=28	=28
[1F	4f	4a	[1ff
.	4A	4cc#	.
.	4B-	4dd	.
.	4c#	4a	.
=29	=29	=29	=29
1F_	2.d	4b-	4ff]
.	.	8dd	4ff
.	.	8b-	.
.	.	4f	4ff
.	4B-	4dd	4ff
=30	=30	=30	=30
1F_	4A	4cc	[1ff
.	4G#	4b	.
.	4A	4cc	.
.	4B	4g#	.
=31	=31	=31	=31
2F]	4c	4a	4ff]
.	2.r	8cc	4ff
.	.	8a	.
2A	.	4f	4ff
.	.	4r	4ff
=32	=32	=32	=32
[1c	4r	4r	4ee
.	4e	4g	4cc
.	4f	4a-	4b
.	4f	4a-	4dd
=33	=33	=33	=33
1c_	2.e	2.g	4cc
.	.	.	4ccc
.	.	.	4cc
.	4d	4b	4ff
=34	=34	=34	=34
2.c]	4e	4cc	4ee
.	4e	4g	4cc
.	4f	4a-	8b
.	.	.	8cc
4C	4f	4a-	8dd
.	.	.	8b
=35	=35	=35	=35
4c	4e	4g	2.cc
4c	4e	4g	.
4c	4e	4g	.
4C	4f	4a-	8dd
.	.	.	8b
=36	=36	=36	=36
4c	4e	4g	4cc
4c	4f	4a-	8dd
.	.	.	8b
4c	4e	4g	4cc
4C	4f	4a-	8dd
.	.	.	8b
=37	=37	=37	=37
4c	4e	4g	2.cc
4c	4e	4g	.
4c	4e	4g	.
4C	4f	4a-	8dd
.	.	.	8b
=38	=38	=38	=38
4c	4e	4g	4cc
4c	4f	4a-	8dd
.	.	.	8b
4c	4e	4g	4cc
4c	4f	4a-	8dd
.	.	.	8b
=39	=39	=39	=39
4c	4e	4g	2cc
2.r	4r	4cc	.
.	4r	4b	4dd
.	4c	4b-	4ee
=40	=40	=40	=40
1r	[1f	2a	4ff
.	.	.	4ccc#
.	.	4b-	4ddd
.	.	4cc#	4aa
=41	=41	=41	=41
1r	1f_	2.dd	4bb-
.	.	.	8ddd
.	.	.	8bb-
.	.	.	4ff
.	.	4b-	4ddd
=42	=42	=42	=42
1r	1f_	4a	4ccc
.	.	4g#	4bb
.	.	4a	4ccc
.	.	4b	4gg#
=43	=43	=43	=43
2r	1f]	2.cc	4aa
.	.	.	8ccc
.	.	.	8aa
4r	.	.	4ff
8F	.	4a	4fff
8A	.	.	.
=44	=44	=44	=44
[1c	4c	4g	4eee
.	4e	4g	4ccc
.	4f	4a-	4bb
.	4f	4a-	4ddd
=45	=45	=45	=45
1c_	2.e	2.g	2.ccc
.	4d	4b	4ff
=46	=46	=46	=46
1c]	4e	4cc	4ee
.	4e	4g	4cc
.	4f	4a-	4b
.	4f	4b	4dd
=47	=47	=47	=47
2.c	2.cc	2.cc	8cc
.	.	.	8ee
.	.	.	8gg
.	.	.	8ccc
.	.	.	8cc
.	.	.	8ccc
4B	4b	4b	8b
.	.	.	8bb
=48	=48	=48	=48
2.A	2.a	2.a	8a
.	.	.	8cc
.	.	.	8ee
.	.	.	8aa
.	.	.	4a
4G	4g	4g	4g
=49	=49	=49	=49
2.F	2.f	2.f	8f
.	.	.	8a
.	.	.	8cc
.	.	.	8ff
.	.	.	4f
4E	4e	4e	4e
=50	=50	=50	=50
4D	4d	4d	4d
4C	4c	4c	4c
4BB	4B	4B	4B
4AA	4A	4A	4A
=51	=51	=51	=51
[1GG	4G	4G	4G
.	4B	4d	4g
.	4c	4e-	4a-
.	4c	4e-	4f#
=52	=52	=52	=52
4GG]	4B	4d	8g
.	.	.	8G
4BB	2G	2.r	8g
.	.	.	8g
4C	.	.	4e-
4AA-	4F#	.	8d
.	.	.	8c
=53	=53	=53	=53
[1GG	4G	4r	4G
.	4B	4d	4g
.	4c	4e-	4a-
.	4c	4e-	4f#
=54	=54	=54	=54
4GG]	4B	4d	8g
.	.	.	8G
4BB	2G	2g	8g
.	.	.	8g
4C	.	.	4e-
4AA-	4c	4f#	8d
.	.	.	8c
=55	=55	=55	=55
4GG	8B	4g	2g
.	8c	.	.
2.r	8d	2.r	.
.	8c	.	.
.	8e	.	2r
.	8d	.	.
.	8f	.	.
.	8e	.	.
=56	=56	=56	=56
1r	8g	1r	1r
.	8f	.	.
.	8a	.	.
.	8g	.	.
.	4f	.	.
.	8e	.	.
.	8d	.	.
=57	=57	=57	=57
1r	2c	4r	4r
.	.	4ee	4gg
.	2e	4ee	4gg
.	.	8dd	8ff
.	.	8cc	8ee
=58	=58	=58	=58
1r	4g	2.b	2.dd
.	4g	.	.
.	4g	.	.
.	4cc	4ee-	4ff#
=59	=59	=59	=59
1r	8b	2.dd	2.gg
.	8cc	.	.
.	8dd	.	.
.	8b	.	.
.	4g	.	.
.	4cc	4ee-	4ff#
=60	=60	=60	=60
1r	2b	2dd	8gg
.	.	.	8gg#
.	.	.	8aa
.	.	.	8ff
.	2r	2r	8gg
.	.	.	8ee
.	.	.	8ff
.	.	.	8dd
=61	=61	=61	=61
4r	1r	4r	2cc
4E	.	4g	.
4E	.	4g	2ee
8D	.	8f	.
8C	.	8e	.
=62	=62	=62	=62
2.BB	2.g	2.d	4gg
.	.	.	4gg
.	.	.	4gg
4AA	4d	4f#	4ccc
=63	=63	=63	=63
2GG	4d	2g	8bb
.	.	.	8ccc
.	4r	.	8ddd
.	.	.	8bb
4r	4r	4r	4gg
4D	4d	4ff#	4ccc
=64	=64	=64	=64
2G	2d	2gg	8bb
.	.	.	8ccc
.	.	.	8ddd
.	.	.	8bb
2r	4r	4r	4gg
.	4e	4cc	4gg#
=65	=65	=65	=65
1r	4r	4r	8gg#
.	.	.	8aa
.	4f	4cc	8gg#
.	.	.	8aa
.	4r	4r	8ff#
.	.	.	8gg
.	4e	4cc#	8ff#
.	.	.	8gg
=66	=66	=66	=66
1r	4d	4dd	8ee
.	.	.	8ff
.	4g	4b	8aa
.	.	.	8ff
.	4c	4cc	8dd#
.	.	.	8ee
.	4e	4g	8gg
.	.	.	8ee
=67	=67	=67	=67
1r	4f	4a	8cc#
.	.	.	8dd
.	4r	4r	8ff
.	.	.	8dd
.	4r	4r	8cc
.	.	.	8b
.	4G	4f	8dd
.	.	.	8b
=68	=68	=68	=68
8CC	8E	4e	4cc
8EE	8G	.	.
8GG	8c	2.r	2.r
8C	8e	.	.
8CC	4E	.	.
8C	.	.	.
8DD	4F	.	.
8C	.	.	.
=69	=69	=69	=69
8EE	4G	8e	8g
8C	.	8g	8cc
2.r	2.r	8cc	8ee
.	.	8ee	8gg
.	.	4e	8g
.	.	.	8gg
.	.	4d	8g
.	.	.	8ff
=70	=70	=70	=70
8CC	8E	4c	8g
8EE	8G	.	8ee
8GG	8c	2.r	2.r
8C	8e	.	.
8CC	4E	.	.
8C	.	.	.
8DD	4F	.	.
8C	.	.	.
=71	=71	=71	=71
8EE	4G	8e	8g
8C	.	8g	8cc
2.r	2.r	8cc	8ee
.	.	8ee	8gg
.	.	4e	8g
.	.	.	8gg
.	.	4d	8g
.	.	.	8ff
=72	=72	=72	=72
8C	2r	4c	8g
8E	.	.	8ee
8G	.	4e	4cc
8c	.	.	.
8B	4r	4f	4dd
8c	.	.	.
8B-	[4c	4g	4ee
8c	.	.	.
=73	=73	=73	=73
8A	4c]	4a	4ff
8c	.	.	.
8G	4B-	4b-	4gg
8c	.	.	.
4F	4A	4cc	4aa
4r	4r	4r	8ccc
.	.	.	8gg#
=74	=74	=74	=74
1r	1r	2r	8aa
.	.	.	8ee
.	.	.	8ff
.	.	.	8cc#
.	.	4r	8dd
.	.	.	8a
.	.	8a	8ff
.	.	8f	8dd
=75	=75	=75	=75
4G	2e	2e	2cc
4G	.	.	.
4G	2f	2B	2dd
4G	.	.	.
=76	=76	=76	=76
8C	8e	4c	2cc
8E	8g	.	.
8G	8cc	2.r	.
8c	8ee	.	.
4C	8e	.	2r
.	8cc	.	.
4D	8f	.	.
.	8cc	.	.
=77	=77	=77	=77
4E	8g	8ee	8gg
.	8cc	8gg	8ccc
2.r	2.r	8ccc	8eee
.	.	8eee	8ggg
.	.	4ee	8gg
.	.	.	8ggg
.	.	4dd	8gg
.	.	.	8fff
=78	=78	=78	=78
8C	8e	4cc	8gg
8E	8g	.	8eee
8G	8cc	2.r	2.r
8c	8ee	.	.
4C	8e	.	.
.	8cc	.	.
4D	8f	.	.
.	8cc	.	.
=79	=79	=79	=79
4E	8g	8ee	8gg
.	8cc	8gg	8ccc
2.r	2.r	8ccc	8eee
.	.	8eee	8ggg
.	.	4ee	8gg
.	.	.	8ggg
.	.	4dd	8gg
.	.	.	8fff
=80	=80	=80	=80
8CC	2c	4cc	8gg
8C	.	.	8eee
8CC	.	4ee	4ccc
8C	.	.	.
8DD	4d	4ff	4bb
8C	.	.	.
8EE	4e	4gg	4bb-
8C	.	.	.
=81	=81	=81	=81
4FF	4f	4aa	8aa
.	.	.	8gg#
2.r	2.r	2.r	8aa
.	.	.	8ee
.	.	.	8ff
.	.	.	8ee
.	.	.	8ff
.	.	.	8cc#
=82	=82	=82	=82
4F	4d	4a	8dd
.	.	.	8a
4r	4r	4r	8ff
.	.	.	8cc#
4F	4d	4a	8dd
.	.	.	8a
4r	4r	4r	8ff
.	.	.	8cc#
=83	=83	=83	=83
4F	4d	4a	8dd
.	.	.	8a
4r	4r	4r	8ff
.	.	.	8cc#
4F	4d	4a	8dd
.	.	.	8a
4r	4r	4r	8ff
.	.	.	8dd
=84	=84	=84	=84
2G	2e	2e	8cc
.	.	.	8e
.	.	.	8g
.	.	.	8cc
2r	2r	2r	8ee
.	.	.	8b
.	.	.	8cc
.	.	.	8ee
=85	=85	=85	=85
4r	4r	4r	1gg
4G	4c	4e	.
4G	4c	4e	.
4G	4c	4e	.
=86	=86	=86	=86
4r	4r	4r	1b
4G#	4d	4f	.
4G#	4d	4f	.
4G#	4d	4f	.
=87	=87	=87	=87
4r	4r	4r	1ccc
4A	4e-	4f#	.
4A	4e-	4f#	.
4A	4e-	4f#	.
=88	=88	=88	=88
4r	4r	4r	1dd
4G	4f	4b	.
4G	4f	4b	.
4G	4f	4b	.
=89	=89	=89	=89
4c	8e	4cc	4cc
.	8g	.	.
4c	8e	4g	4gg
.	8g	.	.
4c	8f	4g	8b
.	8g	.	8cc
4c	8f	4g	8dd
.	8g	.	8b
=90	=90	=90	=90
4c	8e	4g	4cc
.	8g	.	.
4c	8e	4g	4gg
.	8g	.	.
4c	8f	4g	8b
.	8g	.	8cc
4c	8f	4g	8dd
.	8g	.	8b
=91	=91	=91	=91
4c	4e	4g	4cc
4r	4e	4gg	4gg
4G	8f	8b	8aa
.	8e	8cc	8gg
4r	8d	8dd	8gg
.	8f	8b	8gg
=92	=92	=92	=92
4c	4e	4cc	8aa
.	.	.	8gg
4r	4e	4gg	8gg
.	.	.	8gg
4G	8f	8b	8aa
.	8e	8cc	8gg
4r	8d	8dd	8gg
.	8f	8b	8gg
=93	=93	=93	=93
4C	4e	4.cc	4.ccc
2.r	2.r	.	.
.	.	16b	16bb
.	.	16cc	16ccc
.	.	4.g	4.gg
.	.	16f#	16ff#
.	.	16g	16gg
=94	=94	=94	=94
2r	2r	4.e	4.ee
.	.	16d	16dd
.	.	16e	16ee
4c	4c	4c	4cc
4c	4c	4c	4cc
=95	=95	=95	=95
4.c	4.cc	4.cc	4.cc
16B	16b	16b	16b
16c	16cc	16cc	16cc
4.G	4.g	4.g	4.g
16F#	16f#	16f#	16f#
16G	16g	16g	16g
=96	=96	=96	=96
4.E	4.e	4.e	4.e
16D	16d	16d	16d
16E	16e	16e	16e
4C	4c	4c	4c
4C	4c	4c	4c
=97	=97	=97	=97
4C	4c	4c	4c
4r	4r	4r	4r
4C	4c	4c	4c
4C	4c	4c	4c
=98	=98	=98	=98
4C	4c	4c	4c
2.r	2.r	2.r	2.r
=99	=99	=99	=99
1D-	1d-	1d-	1d-
=100	=100	=100	=100
1E	1e	1e	1e
=101	=101	=101	=101
1C#	1c#	1c#	1c#
=102	=102	=102	=102
1E	1e	1e	1e
=103	=103	=103	=103
4A	8A	8c#	2a
.	8c#	8e	.
2.r	8A	8c#	.
.	8c#	8e	.
.	8A	8c#	2cc#
.	8c#	8e	.
.	8A	8c#	.
.	8c#	8e	.
=104	=104	=104	=104
4A	8A	8c#	4ee
.	8c#	8e	.
2.r	8A	8c#	4ee
.	8c#	8e	.
.	8A	8c#	4ee
.	8c#	8e	.
.	8A	8c#	4aa
.	8c#	8e	.
=105	=105	=105	=105
4A	8B	8d	8gg#
.	8d	8e	8aa
2.r	8B	8d	8bb
.	8d	8e	8gg#
.	8B	8d	4ee
.	8d	8e	.
.	8B	8d	4gg#
.	8d	8e	.
=106	=106	=106	=106
4A	8A	8c#	4aa
.	8c#	8e	.
2.r	8A	8c#	4aa
.	8c#	8e	.
.	8A	8c#	8aa
.	8c#	8e	8bb
.	8A	8c#	8ccc#
.	8c#	8e	8ddd
=107	=107	=107	=107
2G#	8B	8d	2eee
.	8d	8e	.
.	8B	8g#	.
.	8d	8b	.
2A	8c#	8a	4ccc#
.	8a	8e	.
.	8e	8cc#	4aa
.	8c#	8a	.
=108	=108	=108	=108
2G#	8B	8d	2eee
.	8d	8e	.
.	8B	8g#	.
.	8d	8b	.
2A	8c#	8a	4ccc#
.	8a	8e	.
.	8e	8cc#	4aa
.	8c#	8a	.
=109	=109	=109	=109
2D	4a	2.f#	2fff#
.	4a#	.	.
2d	4b	.	8eee
.	.	.	8ddd
.	4dd	4ff#	8ccc#
.	.	.	8bb
=110	=110	=110	=110
1e	2cc#	2.ee	2aa
.	4b	.	4gg#
.	4a	4dd#	4ff#
=111	=111	=111	=111
4e	4g#	4ee	4ee
4e	4g#	4b	4ee
4e	4g#	4b	4ee
4e	4a	4b	8ff#
.	.	.	8dd#
=112	=112	=112	=112
4e	4g#	4b	4ee
4e	4g#	4b	4ee
4e	4g#	4b	4ee
4e	4a	4b	8ff#
.	.	.	8dd#
=113	=113	=113	=113
4e	2e	2g#	2ee
2.r	.	.	.
.	2g#	2b	4dd
.	.	.	8cc
.	.	.	8b
=114	=114	=114	=114
2AA	4a	4e	2a
.	4e	4cc	.
2C	4e	4cc	2r
.	8d	8b	.
.	8c	8a	.
=115	=115	=115	=115
4E	2.B	2.g#	1r
4E	.	.	.
4E	.	.	.
4A	4d#	4cc	.
=116	=116	=116	=116
8G#	2.e	2.b	1r
8A	.	.	.
8B	.	.	.
8G#	.	.	.
4E	.	.	.
4G	4c#	4b-	.
=117	=117	=117	=117
8F#	2.d	2.a	1r
8G	.	.	.
8A	.	.	.
8F#	.	.	.
4D	.	.	.
4F	4B	4a-	.
=118	=118	=118	=118
4E	2e	4g	2cc
2.r	.	2.r	.
.	2g	.	2ee
=119	=119	=119	=119
2GG	4b	2B	4gg
.	4b	.	4gg
2BB	4b	2d	4gg
.	8a	.	8ff
.	8g	.	8ee
=120	=120	=120	=120
4D	2f	4f	2dd
4D	.	4f	.
4D	2a	4f	2ff
8C	.	8e	.
8BB	.	8d	.
=121	=121	=121	=121
2AA	2cc	2c	4aa
.	.	.	12a
.	.	.	12cc
.	.	.	12ee
2C	2A	8ee	4aa
.	.	8dd	.
.	.	8ee	4aa
.	.	8cc	.
=122	=122	=122	=122
2.E	[1e	2.b	4aa
.	.	.	4b
.	.	.	4gg
4D	.	4b-	4gg
=123	=123	=123	=123
1C#	2e]	1a	8gg
.	.	.	8ff
.	.	.	8ee
.	.	.	8dd
.	2e	.	8cc#
.	.	.	8b-
.	.	.	8a
.	.	.	8g
=124	=124	=124	=124
4D	4f	2dd	4f
2.r	4a	.	4f
.	4a	2ff	4f
.	8g	.	8e
.	8f	.	8d
=125	=125	=125	=125
1r	2.e	4aa	2.c#
.	.	4aa	.
.	.	4aa	.
.	4e-	4ff#	4c
=126	=126	=126	=126
1r	2.d	4gg	2.B
.	.	4gg	.
.	.	4gg	.
.	4d-	4ee	4B-
=127	=127	=127	=127
2FF	2c	4ff	4A
.	.	4aa	4ccc
2AA	2F	4aa	4ccc
.	.	8gg	8bb-
.	.	8ff	8aa
=128	=128	=128	=128
4C	2c	4ee	4gg
4C	.	4ee	4gg
4C	2r	4ee	4gg
4F	.	4b	4aa-
=129	=129	=129	=129
8E	2r	4cc	4gg
8F	.	.	.
8G	.	4r	4r
8E	.	.	.
4C	4r	4r	4r
4r	4f	4a-	4b
=130	=130	=130	=130
2r	8e	4g	4cc
.	8f	.	.
.	8g	4r	2.r
.	8e	.	.
4r	4c	4r	.
4FF	4A-	4B	.
=131	=131	=131	=131
8EE	4G	4c	1r
8FF	.	.	.
8GG	2.r	2.r	.
8EE	.	.	.
4CC	.	.	.
4r	.	.	.
=132	=132	=132	=132
1r	1r	1r	1r
=133	=133	=133	=133
4c	8c	8e-	2cc
.	8e-	8g	.
2.r	8c	8e-	.
.	8e-	8g	.
.	8c	8e-	2ee-
.	8e-	8g	.
.	8c	8e-	.
.	8e-	8g	.
=134	=134	=134	=134
4c	8c	8e-	4gg
.	8e-	8g	.
2.r	8c	8e-	4gg
.	8e-	8g	.
.	8c	8e-	4gg
.	8e-	8g	.
.	8c	8e-	4ccc
.	8e-	8g	.
=135	=135	=135	=135
[1c	[1f [1d	[1a-	8bb
.	.	.	8ccc
.	.	.	8ddd
.	.	.	8bb
.	.	.	8ff
.	.	.	8gg
.	.	.	8aa-
.	.	.	8ff
=136	=136	=136	=136
1c_	1f] 1d]	1a-]	8dd
.	.	.	8ee-
.	.	.	8ff
.	.	.	8dd
.	.	.	8b
.	.	.	8cc
.	.	.	8dd
.	.	.	8b
=137	=137	=137	=137
4c]	8e-	8g	8cc
.	8d	8f	8dd
2.r	8c	8e-	8ee-
.	8e-	8g	8cc
.	8c	8e-	8a
.	8B-	8d	8b-
.	8A	8c	8cc
.	8c	8e-	8a
=138	=138	=138	=138
1r	8A	8c	8f#
.	8G	8B-	8g
.	8F#	8A	8a
.	8A	8c	8f#
.	2F#	2A	8d
.	.	.	8e-
.	.	.	8d
.	.	.	8c
=139	=139	=139	=139
2r	1G	2B-	8B-
.	.	.	8c
.	.	.	8B-
.	.	.	8A
2EE-	.	2c#	8G
.	.	.	8b-
.	.	.	8a
.	.	.	8g
=140	=140	=140	=140
2DD	2d	2d	8f#
.	.	.	8g
.	.	.	8a
.	.	.	8f#
4r	4r	2r	4d
4e-	4g	.	4cc#
=141	=141	=141	=141
4d	8f#	2r	2.dd
.	8g	.	.
2.r	8a	.	.
.	8f#	.	.
.	4d	4r	.
.	4ee-	4gg	4ccc#
=142	=142	=142	=142
2r	4dd	8ff#	2.ddd
.	.	8gg	.
.	4r	8aa	.
.	.	8ff#	.
4r	4r	4dd	.
4G	4dd	4ff	4bb
=143	=143	=143	=143
2c	2g	8ee	2.ccc
.	.	8ff	.
.	.	8gg	.
.	.	8ee	.
4r	4r	4cc	.
4F	4cc	4ee-	4aa
=144	=144	=144	=144
2B-	2B-	4dd	4bb-
.	.	4dd	4ff
2r	2d	4dd	4ff
.	.	8cc	8ee-
.	.	8b-	8dd
=145	=145	=145	=145
1r	4f	2a	2cc
.	4f	.	.
.	4f	2cc	2ee-
.	8e-	.	.
.	8d	.	.
=146	=146	=146	=146
1r	2c	4ee-	4gg
.	.	4ee-	4gg
.	2e-	4ee-	4gg
.	.	8dd	8ff
.	.	8cc	8ee-
=147	=147	=147	=147
1r	2.g	2.b	4dd
.	.	.	4dd
.	.	.	4dd
.	4f#	4cc	4ee-
=148	=148	=148	=148
1r	2.g	2.b	4dd
.	.	.	4dd
.	.	.	4dd
.	4f#	4cc	4ee-
=149	=149	=149	=149
1r	[1g	[1b	4dd
.	.	.	4dd
.	.	.	4dd
.	.	.	4ee-
=150	=150	=150	=150
1r	1g]	1b]	4dd
.	.	.	4dd
.	.	.	4dd
.	.	.	4ee-
=151	=151	=151	=151
1r	1g	1b-	4dd
.	.	.	4dd
.	.	.	4dd
.	.	.	4ee-
=152	=152	=152	=152
1r	1f#	1a	4dd
.	.	.	4dd
.	.	.	4dd
.	.	.	4ee-
=153	=153	=153	=153
1r	1f	[1a-	4dd
.	.	.	4dd
.	.	.	4dd
.	.	.	4ee-
=154	=154	=154	=154
1r	1f 1B-	2a-]	8dd
.	.	.	8ee-
.	.	.	8ff
.	.	.	8gg
.	.	2d	8aa-
.	.	.	8gg
.	.	.	8aa-
.	.	.	8ff
=155	=155	=155	=155
2EE-	2.B- 2.g	4e-	8gg
.	.	.	8aa-
.	.	4g	8bb-
.	.	.	8gg
2GG	.	4b-	8ee-
.	.	.	8ff
.	4e-	8a-	8gg
.	.	8g	8ee-
=156	=156	=156	=156
4BB-	2.B-	[1f	8dd
.	.	.	8ee-
4BB-	.	.	8ff
.	.	.	8ee-
4BB-	.	.	8dd
.	.	.	8cc
4E-	4c	.	8b-
.	.	.	8a
=157	=157	=157	=157
4D	4B-	4f]	8b-
.	.	.	8cc
4D	2f	2b-	8b-
.	.	.	8a-
4D	.	.	8g
.	.	.	8f
4A-	4f	[4b-	8e-
.	.	.	8d
=158	=158	=158	=158
8G	1e-	8b-]	2e-
8A-	.	8a-	.
8B-	.	8g	.
8G	.	8b-	.
8E-	.	8g	2g
8F	.	8f	.
8G	.	8e-	.
8E-	.	8g	.
=159	=159	=159	=159
8D	1B-	8f	4b-
8E-	.	8e-	.
8F	.	8d	4b-
8E-	.	8e-	.
8D	.	8f	4b-
8C	.	8e-	.
8BB-	.	8d	4ee-
8AA	.	8c	.
=160	=160	=160	=160
2.BB-	1B-	8d	8dd
.	.	8c	8ee-
.	.	8d	8ff
.	.	8e-	8ee-
.	.	8f	8dd
.	.	8d	8b-
4AA-	.	8e-	8cc
.	.	8f	8dd
=161	=161	=161	=161
4GG	4E-	4g	8ee-
.	.	.	8ff
2E-	2B-	2.r	8gg
.	.	.	8aa-
.	.	.	8bb-
.	.	.	8aa-
4D-	4B	.	8gg
.	.	.	8ff
=162	=162	=162	=162
4C	4c	4r	8ee
.	.	.	8ff
4CC	8e	2cc	8gg
.	8f	.	8ff
2r	8g	.	8ee
.	8e	.	8cc
.	8f	4b-	8dd
.	8g	.	8ee
=163	=163	=163	=163
4r	4a-	4a-	8ff
.	.	.	8gg
2F	2c	2.r	8aa-
.	.	.	8bb-
.	.	.	8ccc
.	.	.	8bb-
4E-	4c#	.	8aa-
.	.	.	8gg
=164	=164	=164	=164
4D	4d	4r	8ff#
.	.	.	8gg
4DD	8f#	2dd	8aa
.	8g	.	8gg
2r	8a	.	8ff#
.	8f#	.	8dd
.	8g	4cc	8ee
.	8a	.	8ff#
=165	=165	=165	=165
4r	4b-	8b-	8gg
.	.	8cc	8aa
2GG	4G	8dd	8bb-
.	.	8cc	8aa
.	4B-	8b-	8gg
.	.	8a	8ff
4GG#	4B	8g	8ee
.	.	8f	8dd
=166	=166	=166	=166
[1AA	1c#	1e	8cc#
.	.	.	8dd
.	.	.	8ee
.	.	.	8cc#
.	.	.	8g
.	.	.	8a
.	.	.	8b-
.	.	.	8g
=167	=167	=167	=167
1AA_	2d	1f	8f
.	.	.	8g
.	.	.	8a
.	.	.	8f
.	2G#	.	8d
.	.	.	8e
.	.	.	8f
.	.	.	8d
=168	=168	=168	=168
1AA_	2A	1e	8c#
.	.	.	8d
.	.	.	8e
.	.	.	8c#
.	2c#	.	8A
.	.	.	8B
.	.	.	8c#
.	.	.	8A
=169	=169	=169	=169
1AA]	2.d	2.f	8d
.	.	.	8e
.	.	.	8f
.	.	.	8d
.	.	.	8G#
.	.	.	8A
.	4G#	4G#	8B
.	.	.	8G#
=170	=170	=170	=170
8AA	8A	8A	8A
8GG#	8G#	8G#	8G#
8AA	8A	8A	8A
8GG#	8G#	8G#	8G#
8AA	8A	8A	8A
8C#	8c#	8c#	8c#
8E	8e	8e	8e
8C#	8c#	8c#	8c#
=171	=171	=171	=171
8AA	8A	8A	8A
8GG#	8G#	8G#	8G#
8AA	8A	8A	8A
8GG#	8G#	8G#	8G#
8AA	8A	8A	8A
8C#	8c#	8c#	8c#
8E	8e	8e	8e
8C#	8c#	8c#	8c#
=172	=172	=172	=172
4AA	4A	4A	4A
4r	4r	4r	4r
4AA	4A	4A	4A
8.r	8.r	8.r	8.r
16AA	16A	16A	16A
=173	=173	=173	=173
2AA	2A	2A	2A
2r	2r	2r	2r
=174	=174	=174	=174
1r	1r	1r	1r
=175	=175	=175	=175
1D	1D	1d	1d
=176	=176	=176	=176
1E	1E	1e	1e
=177	=177	=177	=177
4F	8F	8A	2f
.	8A	8c	.
2.r	8F	8A	.
.	8A	8c	.
.	8F	8A	2a
.	8A	8c	.
.	8F	8A	.
.	8A	8c	.
=178	=178	=178	=178
4F	8F	8A	4cc
.	8A	8c	.
2.r	8F	8A	4cc
.	8A	8c	.
.	8F	8A	4cc
.	8A	8c	.
.	8F	8A	4ff
.	8A	8c	.
=179	=179	=179	=179
4F	8G	8B-	8ee
.	8B-	8c	8ff
2.r	8G	8B-	8gg
.	8B-	8c	8ee
.	8G	8B-	4cc
.	8B-	8c	.
.	8G	8B-	4ee
.	8B-	8c	.
=180	=180	=180	=180
4F	8F	8A	4ff
.	8A	8c	.
2.r	8F	8A	4ff
.	8A	8c	.
.	8F	8A	8ff
.	8A	8c	8gg
.	8F	8A	8aa
.	8A	8c	8bb-
=181	=181	=181	=181
2E	8G	8B-	2ccc
.	8B-	8c	.
.	8G	8e	.
.	8B-	8g	.
2F	8A	8f	4aa
.	8f	8c	.
.	8c	8a	4ff
.	8A	8f	.
=182	=182	=182	=182
2E	8G	8B-	2ccc
.	8B-	8c	.
.	8G	8e	.
.	8B-	8g	.
2F	8A	8f	4aa
.	8f	8c	.
.	8c	8a	4ff
.	8A	8f	.
=183	=183	=183	=183
2BB-	4f	2.d	2ddd
.	4f#	.	.
2B-	4g	.	8ccc
.	.	.	8bb-
.	4b-	4dd	8aa
.	.	.	8gg
=184	=184	=184	=184
1c	2a	2.cc	2ff
.	4g	.	4ee
.	4f	4b	4dd
=185	=185	=185	=185
4c	4e	4cc	4cc
4c	4e	4g	4cc
4c	4e	4g	4cc
4c	4f	4g	8dd
.	.	.	8b
=186	=186	=186	=186
4c	4e	4g	4cc
4c	4e	4g	4cc
4c	4e	4g	4cc
4c	4f	4g	8dd
.	.	.	8b
=187	=187	=187	=187
4c	4e	4e	4cc
4r	4r	4r	4r
4c	4e	4g	4cc
4r	4r	4r	4r
=188	=188	=188	=188
4c	4e	4e	4cc
2.r	2.r	2.r	2.r
=189	=189	=189	=189
4G 4GG	8G	8B-	2g
.	8B-	8d	.
2.r	8G	8B-	.
.	8B-	8d	.
.	8G	8B-	2b-
.	8B-	8d	.
.	8G	8B-	.
.	8B-	8d	.
=190	=190	=190	=190
4G 4GG	8G	8B-	4dd
.	8B-	8d	.
2.r	8G	8B-	4dd
.	8B-	8d	.
.	8G	8B-	4dd
.	8B-	8d	.
.	8G	8B-	4gg
.	8B-	8d	.
=191	=191	=191	=191
4GG 4G	8A	8c	8ff#
.	8c	8d	8gg
2.r	8A	8c	8aa
.	8c	8d	8ff#
.	8A	8c	4dd
.	8c	8d	.
.	8A	8c	4ff#
.	8c	8d	.
=192	=192	=192	=192
4GG 4G	8G	8B-	4gg
.	8B-	8d	.
2.r	8G	8B-	4gg
.	8B-	8d	.
.	8G	8B-	8gg
.	8B-	8d	8aa
.	8G	8B-	8bb-
.	8B-	8d	8ccc
=193	=193	=193	=193
2F#	8A	8c	2ddd
.	8c	8d	.
.	8A	8f#	.
.	8c	8a	.
2G	8B-	8g	4bb-
.	8d	8d	.
.	8g	8b-	4gg
.	8b-	8dd	.
=194	=194	=194	=194
2C	2b-	2gg	2eee
4D	4a	[2ff	4fff
4d	4g#	.	4bb
=195	=195	=195	=195
2c	4a	4ff]	4ccc
.	4f	4a	4aa
2C	4e	4g	4bb-
.	4g	4b-	4ee
=196	=196	=196	=196
[1F	4f	4a	[1ff
.	4A	4cc#	.
.	4B-	4dd	.
.	4c#	4a	.
=197	=197	=197	=197
1F_	2.d	4b-	4ff]
.	.	8dd	4ff
.	.	8b-	.
.	.	4f	4ff
.	4B-	4dd	4ff
=198	=198	=198	=198
1F_	4A	4cc	[1ff
.	4G#	4b	.
.	4A	4cc	.
.	4B	4g#	.
=199	=199	=199	=199
2F]	4c	4a	4ff]
.	4r	8cc	4ff
.	.	8a	.
2r	4r	4f	4ff
.	4a	4f	4ccc#
=200	=200	=200	=200
1r	4b-	[1f	4ddd
.	4a	.	4ccc#
.	4b-	.	4ddd
.	4cc#	.	4aa
=201	=201	=201	=201
1r	2.dd	4f]	4bb-
.	.	4f	8ddd
.	.	.	8bb-
.	.	4f	4ff
.	4b-	4f	4ddd
=202	=202	=202	=202
1r	4a	[1f	4ccc
.	4g#	.	4bb
.	4a	.	4ccc
.	4b	.	4gg#
=203	=203	=203	=203
2r	2.cc	4f]	4aa
.	.	4f	8ccc
.	.	.	8aa
4r	.	4f	4ff
8F	4cc	4a	4fff
8A	.	.	.
=204	=204	=204	=204
[1c	4e	4g	4eee
.	4e	4g	4ccc
.	4f	4a-	4bb
.	4f	4a-	4ddd
=205	=205	=205	=205
2.c]	8e	2g	2.ccc
.	8f	.	.
.	8g	.	.
.	8e	.	.
.	4c	4e	.
4F	4cc	4a	4eee-
=206	=206	=206	=206
[1B-	4f	4b-	4ddd
.	4d	2f	4bb-
.	4e-	.	4aa
.	4e-	4f	4ccc
=207	=207	=207	=207
2B-]	8d	2f	2.bb-
.	8e-	.	.
.	8f	.	.
.	8d	.	.
2r	4B-	4d	.
.	4r	4r	4ddd
=208	=208	=208	=208
1r	4r	4r	4ccc
.	4f#	4dd	4aa
.	4g	4b-	4bb-
.	4r	4r	4ddd
=209	=209	=209	=209
2r	4r	4r	4ccc
.	4e	4cc	4gg
4r	4f	4a	4aa
4FF	4A	4a	4ccc
=210	=210	=210	=210
2.BB-	2.B-	4dd	4bb-
.	.	4cc	4aa
.	.	4b-	4gg
4BB	4B	4a	4ff
=211	=211	=211	=211
8CC	1c	2c 2g	2ee
8C	.	.	.
8CC	.	.	.
8C	.	.	.
8CC	.	2e	2r
8C	.	.	.
8CC	.	.	.
8C	.	.	.
=212	=212	=212	=212
8CC	1e	4g	1r
8C	.	.	.
8CC	.	4g	.
8C	.	.	.
8CC	.	4g	.
8C	.	.	.
8CC	.	4e	.
8C	.	.	.
=213	=213	=213	=213
8CC	[1f [1d	[1B [1a-	2b
8C	.	.	.
8CC	.	.	.
8C	.	.	.
8CC	.	.	2dd
8C	.	.	.
8CC	.	.	.
8C	.	.	.
=214	=214	=214	=214
8CC	1f] 1d]	1B] 1a-]	4ff
8C	.	.	.
8CC	.	.	4ff
8C	.	.	.
8CC	.	.	4ff
8C	.	.	.
8CC	.	.	4b
8C	.	.	.
=215	=215	=215	=215
8CC	[1e	[1B- [1g	2cc
8C	.	.	.
8CC	.	.	.
8C	.	.	.
8CC	.	.	4ee
8C	.	.	.
8CC	.	.	8gg
8C	.	.	8bb-
=216	=216	=216	=216
8CC	1e]	1B-] 1g]	4ddd
8C	.	.	.
8CC	.	.	4ddd
8C	.	.	.
8CC	.	.	4ddd
8C	.	.	.
8CC	.	.	4eee
8C	.	.	.
=217	=217	=217	=217
2AA	4c	2A 2f	4fff
.	4c	.	4fff
2r	4a	[2ff	8fff
.	.	.	8eee
.	4a	.	8ddd
.	.	.	8ccc
=218	=218	=218	=218
1r	4g	2ff]	8bb-
.	.	.	8ccc
.	4g	.	8ddd
.	.	.	8bb-
.	4cc	[2ee	8gg
.	.	.	8aa
.	4cc	.	8bb-
.	.	.	8gg
=219	=219	=219	=219
1r	4f	2ee]	8aa
.	.	.	8bb-
.	4f	.	8ccc
.	.	.	8aa
.	4b-	[2dd	8ff
.	.	.	8gg
.	4b-	.	8aa
.	.	.	8ff
=220	=220	=220	=220
1r	4e	2dd]	8gg
.	.	.	8aa
.	4e	.	8bb-
.	.	.	8gg
.	4a	[2cc	8ee
.	.	.	8ff
.	4a	.	8gg
.	.	.	8ee
=221	=221	=221	=221
1r	4d	2cc]	8ff
.	.	.	8gg
.	4d	.	8aa
.	.	.	8ff
.	4g	2b	8dd
.	.	.	8ee
.	4g	.	8ff
.	.	.	8dd
=222	=222	=222	=222
2C	2g	2cc	8ee
.	.	.	8dd
.	.	.	8cc
.	.	.	8b
2r	2r	2r	8cc
.	.	.	8dd
.	.	.	8ee
.	.	.	8ff
=223	=223	=223	=223
2C	2e	2cc	8gg
.	.	.	8ff
.	.	.	8ee
.	.	.	8dd
2r	2r	2r	8ee
.	.	.	8ff
.	.	.	8gg
.	.	.	8aa
=224	=224	=224	=224
[1C	[1B-	[1e [1G	8bb-
.	.	.	8gg
.	.	.	8gg
.	.	.	8ee
.	.	.	8ee
.	.	.	8cc
.	.	.	8cc
.	.	.	8b-
=225	=225	=225	=225
1C]	1B-]	1e] 1G]	8b-
.	.	.	8g
.	.	.	8g
.	.	.	8e
.	.	.	8e
.	.	.	8c
.	.	.	8c
.	.	.	8B-
=226	=226	=226	=226
8FF	8A	4f 4A	4A
8AA	8c	.	.
8C	8f	2.r	2.r
8F	8a	.	.
4FF	8A	.	.
.	8f	.	.
4GG	8B-	.	.
.	8f	.	.
=227	=227	=227	=227
4AA	8c	8a	8cc
.	8f	8cc	8ff
2.r	2.r	8ff	8aa
.	.	8aa	8ccc
.	.	4a	8cc
.	.	.	8ccc
.	.	4g	8cc
.	.	.	8bb-
=228	=228	=228	=228
8FF	8A	4f	8cc
8AA	8c	.	8aa
8C	8f	2.r	2.r
8F	8a	.	.
4FF	8A	.	.
.	8f	.	.
4GG	8B-	.	.
.	8f	.	.
=229	=229	=229	=229
4AA	8c	8a	8cc
.	8f	8cc	8ff
2.r	2.r	8ff	8aa
.	.	8aa	8ccc
.	.	4a	8cc
.	.	.	8ccc
.	.	4g	8cc
.	.	.	8bb-
=230	=230	=230	=230
4r	4r	4f	8cc
.	.	.	8aa
4F	2f	4a	4ff
4G	.	4b-	4ee
4A	4f	4cc	4ee-
=231	=231	=231	=231
4B-	4f	4dd	8dd
.	.	.	8ee
4r	4r	4r	8ff
.	.	.	8ee
4B-	4d	4dd	8ff
.	.	.	8ff#
4r	4r	4r	8gg
.	.	.	8ff#
=232	=232	=232	=232
4B-	4d	4g	8gg
.	.	.	8dd
4r	4r	4r	8bb-
.	.	.	8ff#
4B-	4d	4g	8gg
.	.	.	8dd
4r	4r	4r	8bb-
.	.	.	8ff#
=233	=233	=233	=233
4B-	4d	4g	8gg
.	.	.	8dd
4r	4r	4r	8bb-
.	.	.	8ff#
4r	4r	4r	8gg
.	.	.	8dd
4B-	4c	8e	8bb-
.	.	8g	8ee
=234	=234	=234	=234
4A	4c	4f	8ff
.	.	.	8cc
4r	4r	4r	8aa
.	.	.	8ee
4A	4c	4f	8ff
.	.	.	8cc
4r	4r	4r	8aa
.	.	.	8ee
=235	=235	=235	=235
4A	4c	4f	8ff
.	.	.	8cc
4r	4r	4r	8aa
.	.	.	8ee
4r	4r	4r	8ff
.	.	.	8cc
4F	4f	4f	8aa
.	.	.	8cc
=236	=236	=236	=236
1G	4d	8f	1b
.	.	8d	.
.	4r	8a-	.
.	.	8e	.
.	4r	8f	.
.	.	8d	.
.	4f	8a-	.
.	.	8f	.
=237	=237	=237	=237
1C	8e	1g	1b-
.	8c	.	.
.	8g	.	.
.	8f	.	.
.	8e	.	.
.	8c	.	.
.	8g	.	.
.	8e	.	.
=238	=238	=238	=238
4F	4f	2.f	8a
.	.	.	8cc
4AA	4A	.	8ff
.	.	.	8cc
4BB-	4B-	.	8dd
.	.	.	8a
4BB-	4d	8d	8b-
.	.	8B-	8g
=239	=239	=239	=239
1C	2c	4A	8f
.	.	.	8a
.	.	2.r	8cc
.	.	.	8a
.	2r	.	8ff
.	.	.	8cc
.	.	.	8aa
.	.	.	8ff
=240	=240	=240	=240
4r	4r	4r	1ccc
4C	4f	4a	.
4C	4f	4a	.
4C	4f	4a	.
=241	=241	=241	=241
4r	4r	4r	1ee
4C#	4g	4b-	.
4C#	4g	4b-	.
4C#	4g	4b-	.
=242	=242	=242	=242
4r	4r	4r	1f
4D	4A-	4B	.
4D	4A-	4B	.
4D	4A-	4B	.
=243	=243	=243	=243
4r	4r	4r	1gg
4C	4b-	4ee	.
4C	4b-	4ee	.
4C	4b-	4ee	.
=244	=244	=244	=244
4F	8a	4ff	4ff
.	8cc	.	.
4F	8a	2cc	4ccc
.	8cc	.	.
4F	8b-	.	8ee
.	8cc	.	8ff
4F	8b-	[4cc	8gg
.	8cc	.	8ee
=245	=245	=245	=245
4F	8a	4cc]	4ff
.	8cc	.	.
4F	8a	2cc	4ccc
.	8cc	.	.
4F	8b-	.	8ee
.	8cc	.	8ff
4F	8b-	[4cc	8gg
.	8cc	.	8ee
=246	=246	=246	=246
4F	4a	4cc]	4ff
4r	4A	4cc	4cc
4C	8B-	8e	8dd
.	8A	8f	8cc
4r	8G	8g	8cc
.	8B-	8e	8cc
=247	=247	=247	=247
4F	4A	4f	8dd
.	.	.	8cc
4r	4A	4cc	8cc
.	.	.	8cc
4C	8B-	8e	8dd
.	8A	8f	8cc
4r	8G	8g	8cc
.	8B-	8e	8cc
=248	=248	=248	=248
4.f	4A	4.f	4.ff
.	4r	.	.
16e	.	16e	16ee
16f	.	16f	16ff
4.c	4.cc	4.cc	4.cc
16B	16b	16b	16b
16c	16cc	16cc	16cc
=249	=249	=249	=249
4.A	4.a	4.a	4.a
16G	16g	16g	16g
16A	16a	16a	16a
4.F	4.f	4.f	4.f
16E	16e	16e	16e
16F	16f	16f	16f
=250	=250	=250	=250
4.E-	4.e-	4.e-	4.e-
16D	16d	16d	16d
16E-	16e-	16e-	16e-
4.C	4.c	4.c	4.c
16BB-	16B-	16B-	16B-
16C	16c	16c	16c
=251	=251	=251	=251
4.AA	4.A	4.A	4.A
16GG	16G	16G	16G
16AA	16A	16A	16A
4.EE-	4.E-	4.c	4.a
16DD	16D	16B-	16g
16EE-	16E-	16c	16a
=252	=252	=252	=252
4DD	4D	4d	8b-
.	.	.	8B-
4BB-	4f	4d	8d
.	.	.	8f
4BB-	4f	4d	8b-
.	.	.	8d
4BB-	4f	4d	8f
.	.	.	8b-
=253	=253	=253	=253
4BB-	4d	4f	8dd
.	.	.	8f
4BB-	4d	4f	8b-
.	.	.	8dd
4BB-	4B-	8dd	8ff
.	.	8cc#	8ee
4BB-	4B-	8dd	8ff
.	.	8b-	8dd
=254	=254	=254	=254
4C	4c	4a	4cc
4C	4c	4g	4b-
4C	4c	4f	4a
4C	4c	4e	4g
=255	=255	=255	=255
2F	2F	2f	2f
2A	2A	2a	2a
=256	=256	=256	=256
4c	4c	4cc	4cc
4c	4c	4cc	4cc
4c	4c	4cc	4cc
4f	4f	4ff	4ff
=257	=257	=257	=257
8e	8e	8ee	8ee
8f	8f	8ff	8ff
8g	8g	8gg	8gg
8e	8e	8ee	8ee
4c#	4c#	4cc#	4cc#
4d	4d	4dd	4dd
=258	=258	=258	=258
8c	8c	8cc	8cc
8d	8d	8dd	8dd
8e-	8e-	8ee-	8ee-
8c	8c	8cc	8cc
4A	4A	4a	4a
4B-	4B-	4b-	4b-
=259	=259	=259	=259
4F#	4F#	4f#	4f#
4G	4G	4g	4g
4E	4E	4e	4e
4F	4F	4f	4f
=260	=260	=260	=260
4BB-	4B-	4d	4g
4r	4r	4r	4r
4C	4G	4B-	4e
4r	4r	4r	4r
=261	=261	=261	=261
4F	4F	4A	4f
4r	4r	4r	4r
4C	4c	4g 4b- 4ee	4gg 4cc 4e
4r	4r	4r	4r
=262	=262	=262	=262
4FF	4f	4ff 4a 4f	4aa 4cc 4f
2.r	2.r	2.r	2.r
==	==	==	==
*-	*-	*-	*-
!!!RWG1: This file contains only pitch and duration data.
!!!RWG2: Transposing instruments are not transposed.
!!!RWG3: Spines may have incompatible meters.
!!!RWG4: Durations of rests and tied notes may be interpreted.
!!!RWG: Key is interpreted using the Humdrum key tool.
!!!GTL: 6 Quartetti ("Apponyi")
!!!AFT: stage1
!!!END: 1997/04/15
!!!KEY: 4098450017
!!!EMD: Converted from MuseData to Humdrum Dec 16, 2000, by Andreas Kornstaedt using muse2kern.
!!!EMD: Manual editing by Craig Sapp, Nov 2001
